public/img/partners/tighten.min.svg

<?xml version="1.0" encoding="UTF-8"?>
<svg width="222px" height="40px" viewBox="0 0 222 40" version="1.1" xmlns="http://www.w3.org/2000/svg" xmlns:xlink="http://www.w3.org/1999/xlink">
    <!-- Generator: Sketch 56.3 (81716) - https://sketch.com -->
    <title>Untitled</title>
    <desc>Created with Sketch.</desc>
    <g id="Page-1" stroke="none" stroke-width="1" fill="none" fill-rule="evenodd">
        <g id="tighten.min" fill-rule="nonzero">
            <path d="M70.263,28.641 L70.263,31.491 L61.397,31.491 L61.397,28.641 L64.273,28.641 L64.273,13.35 L60.052,13.35 L60.052,17.433 L57,17.433 L57,10.5 L74.651,10.5 L74.651,17.424 L71.6,17.424 L71.6,13.341 L67.379,13.341 L67.379,28.641 L70.264,28.641 L70.263,28.641 Z M91.502,28.641 L91.502,31.491 L82.69,31.491 L82.69,28.641 L85.539,28.641 L85.539,13.35 L82.689,13.35 L82.689,10.5 L91.502,10.5 L91.502,13.35 L88.652,13.35 L88.652,28.64 L91.502,28.64 L91.502,28.641 Z M111.8,17.098 C111.747,14.611 111.66,14.012 111.422,13.768 C111.246,13.586 111.018,13.495 110.147,13.495 L104.914,13.495 C104.017,13.495 103.806,13.558 103.604,13.767 C103.314,14.067 103.199,14.937 103.199,21 C103.199,27.053 103.313,27.924 103.604,28.224 C103.806,28.433 104.017,28.496 104.914,28.496 L110.296,28.496 C111.106,28.496 111.396,28.433 111.598,28.224 C111.835,27.979 111.976,27.054 111.976,24.412 L111.976,23.37 L107.702,23.37 L107.702,20.61 L115.142,20.61 L115.142,23.76 C115.142,28.38 114.861,29.632 113.955,30.566 C113.287,31.256 112.415,31.492 110.789,31.492 L104.246,31.492 C102.504,31.492 101.836,31.283 101.22,30.657 C100.209,29.604 99.83,28.071 99.83,21.001 C99.83,13.922 100.209,12.389 101.22,11.336 C101.836,10.71 102.504,10.501 104.246,10.501 L110.639,10.501 C112.302,10.501 113.225,10.737 113.753,11.281 C114.685,12.243 114.913,13.378 114.975,17.09 L111.809,17.09 L111.8,17.099 L111.8,17.098 Z M140.682,28.641 L143.409,28.641 L143.409,31.491 L134.834,31.491 L134.834,28.641 L137.569,28.641 L137.569,21.99 L129.319,21.99 L129.319,28.642 L132.046,28.642 L132.046,31.492 L123.471,31.492 L123.471,28.642 L126.206,28.642 L126.206,13.35 L123.48,13.35 L123.48,10.5 L132.046,10.5 L132.046,13.35 L129.319,13.35 L129.319,19.221 L137.569,19.221 L137.569,13.35 L134.843,13.35 L134.843,10.5 L143.417,10.5 L143.417,13.35 L140.673,13.35 L140.673,28.64 L140.683,28.64 L140.682,28.641 Z M164.639,28.641 L164.639,31.491 L155.774,31.491 L155.774,28.641 L158.65,28.641 L158.65,13.35 L154.429,13.35 L154.429,17.433 L151.377,17.433 L151.377,10.5 L169.027,10.5 L169.027,17.424 L165.976,17.424 L165.976,13.341 L161.755,13.341 L161.755,28.641 L164.639,28.641 Z M176.979,13.35 L176.979,10.5 L192.914,10.5 L192.914,16.825 L189.863,16.825 L189.863,13.35 L182.827,13.35 L182.827,19.221 L188.288,19.221 L188.288,21.989 L182.827,21.989 L182.827,28.641 L190.091,28.641 L190.091,24.711 L193.143,24.711 L193.143,31.491 L176.978,31.491 L176.978,28.641 L179.705,28.641 L179.705,13.35 L176.978,13.35 L176.979,13.35 Z M216.317,13.35 L213.591,13.35 L213.591,10.5 L221.928,10.5 L221.928,13.35 L219.255,13.35 L219.255,31.5 L215.525,31.5 C214.69,31.5 214.515,31.318 214.163,30.502 L207.364,14.366 L206.924,14.366 L206.924,28.641 L209.66,28.641 L209.66,31.491 L201.26,31.491 L201.26,28.641 L203.987,28.641 L203.987,13.35 L201.261,13.35 L201.261,10.5 L207.997,10.5 C208.842,10.5 209.017,10.682 209.369,11.498 L215.878,26.898 L216.318,26.898 L216.318,13.35 L216.317,13.35 Z" id="Shape" fill="#424242"></path>
            <path d="M32.502,9.118 C33.322,9.595 34,10.79 34,11.761 L34,28.25 C34,29.22 33.321,30.408 32.502,30.893 L18.489,39.137 C17.669,39.622 16.321,39.622 15.493,39.137 L1.498,30.892 C0.611300547,30.2951467 0.0565475496,29.3163669 0,28.249 L0,11.76 C0,10.79 0.67,9.603 1.498,9.117 L15.502,0.865 C16.4413158,0.378084421 17.5586842,0.378084421 18.498,0.865 L32.502,9.11 L32.502,9.12 L32.502,9.118 Z M27.8130347,20.698 L27.8130347,19.313 C27.8168865,18.9102111 27.4937836,18.5803956 27.091,18.576 L22.596,18.576 C21.4774201,18.5765793 20.4059016,18.125907 19.624,17.326 C18.8323404,16.5163378 18.3899741,15.4283753 18.392,14.296 L18.392,9.711 C18.3959373,9.31166123 18.0782503,8.98328071 17.679,8.974 L16.32,8.974 C15.9172164,8.97839558 15.5941135,9.30821113 15.598,9.711 L15.598,14.296 C15.6000259,15.4283753 15.1576596,16.5163378 14.366,17.326 C13.5840984,18.125907 12.5125799,18.5765793 11.394,18.576 L6.9,18.576 C6.50074967,18.5852807 6.18306269,18.9136612 6.18695546,19.313 L6.18695546,20.697 C6.18485814,20.8896854 6.26004372,21.0751885 6.39573633,21.2120088 C6.53142893,21.348829 6.71630345,21.4255472 6.909,21.425 L11.404,21.425 C12.518,21.425 13.586,21.878 14.374,22.682 C15.1634933,23.4933406 15.6033142,24.5819423 15.599,25.714 L15.599,30.299 C15.5968581,30.4916854 15.6720437,30.6771885 15.8077363,30.8140088 C15.9434289,30.950829 16.1283034,31.0275472 16.321,31.0270029 L17.679,31.0270029 C17.8703025,31.0256864 18.0531706,30.9480827 18.1870297,30.8114075 C18.3208887,30.6747323 18.394669,30.4902884 18.392,30.299 L18.392,25.714 C18.3881282,24.580178 18.8298575,23.4902199 19.622,22.679 C20.4037168,21.877126 21.4761415,21.4249334 22.596,21.425 L27.091,21.425 C27.4911772,21.4227967 27.8141085,21.0971817 27.8130347,20.697 L27.8130347,20.698 Z" id="Shape" fill="#FBB13D"></path>
        </g>
    </g>
</svg>

<svg width="263" height="40" viewBox="0 0 263 40" xmlns="http://www.w3.org/2000/svg"><title>tighten</title><g fill-rule="nonzero" fill="none"><path d="M70.263 28.641v2.85h-8.866v-2.85h2.876V13.35h-4.221v4.083H57V10.5h17.651v6.924H71.6v-4.083h-4.221v15.3h2.885zm21.239 0v2.85H82.69v-2.85h2.849V13.35h-2.85V10.5h8.813v2.85h-2.85V28.64h2.85zM111.8 17.098c-.053-2.487-.14-3.086-.378-3.33-.176-.182-.404-.273-1.275-.273h-5.233c-.897 0-1.108.063-1.31.272-.29.3-.405 1.17-.405 7.233 0 6.053.114 6.924.405 7.224.202.209.413.272 1.31.272h5.382c.81 0 1.1-.063 1.302-.272.237-.245.378-1.17.378-3.812V23.37h-4.274v-2.76h7.44v3.15c0 4.62-.281 5.872-1.187 6.806-.668.69-1.54.926-3.166.926h-6.543c-1.742 0-2.41-.209-3.026-.835-1.011-1.053-1.39-2.586-1.39-9.656 0-7.079.379-8.612 1.39-9.665.616-.626 1.284-.835 3.026-.835h6.393c1.663 0 2.586.236 3.114.78.932.962 1.16 2.097 1.222 5.809h-3.166l-.009.009zm28.882 11.543h2.727v2.85h-8.575v-2.85h2.735V21.99h-8.25v6.652h2.727v2.85h-8.575v-2.85h2.735V13.35h-2.726V10.5h8.566v2.85h-2.727v5.871h8.25V13.35h-2.726V10.5h8.574v2.85h-2.744V28.64h.01zm23.957 0v2.85h-8.865v-2.85h2.876V13.35h-4.221v4.083h-3.052V10.5h17.65v6.924h-3.051v-4.083h-4.221v15.3h2.884zm12.34-15.291V10.5h15.935v6.325h-3.051V13.35h-7.036v5.871h5.461v2.768h-5.461v6.652h7.264v-3.93h3.052v6.78h-16.165v-2.85h2.727V13.35h-2.727zm39.338 0h-2.726V10.5h8.337v2.85h-2.673V31.5h-3.73c-.835 0-1.01-.182-1.362-.998l-6.799-16.136h-.44v14.275h2.736v2.85h-8.4v-2.85h2.727V13.35h-2.726V10.5h6.736c.845 0 1.02.182 1.372.998l6.509 15.4h.44V13.35zm21.213 17.324c-.897-.926-1.16-2.042-1.16-6.325 0-4.284.263-5.39 1.16-6.317.554-.58 1.381-.816 2.736-.816h3.896c1.257 0 1.82.263 2.26.708.668.69.923 1.633.923 4.31h-2.594c-.044-1.851-.15-2.169-.308-2.323-.15-.163-.352-.236-.941-.236H240.6c-.792 0-.994.073-1.179.263-.264.263-.387.763-.387 4.41 0 3.649.132 4.157.387 4.42.176.182.387.273 1.179.273h2.92c.571 0 .826-.064 1.002-.245.176-.182.282-.717.282-2.514h2.594c0 2.958-.264 3.784-.95 4.492-.413.427-1.055.726-2.26.726h-3.922c-1.355 0-2.182-.245-2.736-.826zm14.881 0c-.897-.926-1.152-2.042-1.152-6.325 0-4.284.255-5.39 1.143-6.317.572-.58 1.39-.816 2.744-.816h3.958c1.354 0 2.172.236 2.735.816.897.926 1.161 2.033 1.161 6.317 0 4.283-.264 5.4-1.16 6.325-.564.581-1.382.817-2.736.817h-3.958c-1.354 0-2.172-.236-2.735-.817zm1.891-1.906c.176.182.387.273 1.187.273h3.28c.792 0 .995-.091 1.18-.273.254-.272.377-.771.377-4.42 0-3.647-.123-4.147-.378-4.41-.176-.181-.387-.272-1.178-.272h-3.28c-.792 0-1.003.09-1.188.272-.255.263-.378.763-.378 4.41 0 3.649.123 4.157.378 4.42z" fill="#424242"/><path d="M32.502 9.118c.82.477 1.498 1.672 1.498 2.643V28.25c0 .97-.679 2.158-1.498 2.643l-14.013 8.244c-.82.485-2.168.485-2.996 0L1.498 30.892A3.403 3.403 0 0 1 0 28.249V11.76c0-.97.67-2.157 1.498-2.643L15.502.865a3.255 3.255 0 0 1 2.996 0L32.502 9.11v.01zm-4.689 11.58v-1.385a.73.73 0 0 0-.722-.737h-4.495a4.153 4.153 0 0 1-2.972-1.25 4.323 4.323 0 0 1-1.232-3.03V9.711a.73.73 0 0 0-.713-.737H16.32a.73.73 0 0 0-.722.737v4.585a4.323 4.323 0 0 1-1.232 3.03 4.153 4.153 0 0 1-2.972 1.25H6.9a.73.73 0 0 0-.713.737v1.384a.72.72 0 0 0 .722.728h4.495c1.114 0 2.182.453 2.97 1.257a4.324 4.324 0 0 1 1.225 3.032v4.585a.72.72 0 0 0 .722.728h1.358a.718.718 0 0 0 .713-.728v-4.585a4.323 4.323 0 0 1 1.23-3.035 4.153 4.153 0 0 1 2.974-1.254h4.495a.726.726 0 0 0 .722-.728z" fill="#FBB13D"/></g></svg>
